X:867
T:Snug in a Blanket
S:Derek Hoy
Z:Nigel Gatherer
L:1/8
M:6/8
K:D
z | e2f gfg | ABA g2e | faf gec | dcd f2d | !
e2 f gfg | ABA g2e | faf gec |1 dfe d2f :||2 dfe dcB || !
c2d eAA | eAf ecA | c2d eAA | Bcd f2e | ! 
c2d eAA | eAf ecA | faf gec |1 dfe dcB :||2 dfe d3 ||
